X: 38951
T: Svanda The Bagpiper
R: polka
M: 2/4
K: Gmajor
"G" GG/A/ BB/d/|"D7" cc/d/ c/B/A|"G" BB"D7" AA|"G" G4|
"D" dd/e/ ff/a/|"A7" gg/a/ g/f/e|"D" ff"A7" ee|"D" d2 D/E/F/A/|
"Am" cc/d/"D7" c/B/A|"G" BB dd|"Am" cc"D7" ee|"G" dd"Em" bg|
"G" d/e/d/c/ B"D7"A|"G" d3"Am" c|"G" BG/A/"D7" BA|"G" G4:|

